app/components/company-logo/assets/schlund-partner.svg

<svg xmlns="http://www.w3.org/2000/svg" preserveAspectRatio="xMinYMin" version="1.0" viewBox="0 0 708.661 121.288"><defs><clipPath id="a"><path d="M124.82 241.91h70.99v12.15h-70.99z"/></clipPath></defs><g fill="#fff" clip-path="url(#a)" font-family="fnt1" font-size="8.5" letter-spacing="0" transform="matrix(9.98255 0 0 -9.98255 -1246.022 2536.167)" word-spacing="0"><path fill="#c5c5c7" d="M173.57 246.87h-.26v-2.44h.26zm1.09 0h-.26v-2.44h.26zm1.08 0h-.26v-2.44h.26zm1.09 0h-.26v-2.44h.26zm1.09 0h-.26v-2.44h.26zm1.08 0h-.26v-2.44h.26zm1.09 0h-.26v-2.44h.26zm1.09 0h-.26v-2.44h.26zm1.08 0H182v-2.44h.26zm1.09 0h-.26v-2.44h.26zm1.09 0h-.26v-2.44h.26zm1.09 0h-.27v-2.44h.27zm1.08 0h-.26v-2.44h.26zm1.09 0h-.26v-2.44h.26zm1.09 0h-.26v-2.44h.26zm1.08 0h-.26v-2.44h.26zm1.09 0h-.26v-2.44h.26zm1.09 0h-.26v-2.44h.26zm1.08 0h-.26v-2.44h.26zm-56.36 0h-.54v-4.96h.54zm1.23 0h-.55v-4.96h.55zm1.22 0h-.55v-4.96h.55zm1.22 0h-.54v-4.96h.54zm1.22 0h-.54v-4.96h.54zm1.23 0h-.55v-4.96h.55zm1.22 0h-.55v-4.96h.55zm1.22 0h-.54v-4.96h.54zm1.22 0h-.54v-4.96h.54zm1.22 0h-.54v-4.96h.54zm1.23 0h-.54v-4.96h.54zm1.22 0h-.54v-4.96h.54zm1.22 0h-.54v-4.96h.54zm1.22 0h-.54v-4.96h.54zm1.23 0h-.54v-4.96h.54zm1.22 0h-.54v-4.96h.54zm1.22 0h-.54v-4.96h.54zm1.23 0h-.55v-4.96h.55zm1.22 0h-.55v-4.96h.55zm1.22 0h-.54v-4.96h.54zm1.22 0h-.54v-2.44h.54zm1.23 0h-.55v-2.44h.55zm2.6 0h-.54v-2.44h.54zm1.22 0h-.54v-2.44h.54zm1.23 0h-.54v-2.44h.54zm1.23 0h-.54v-2.44h.54zm1.22 0h-.54v-2.44h.54zm1.23 0h-.54v-2.44h.54zm1.23 0h-.54v-2.44h.54z"/><path fill="#004493" d="M124.82 246.89h69.12v.26h-69.12z"/><path fill="#004493" d="M128.48 250.61c-.06.41-.4.41-.65.41-.83 0-.83-.1-.83-.39 0-.24.02-.41.83-.42 1.64-.04 2.37-.13 2.37-1.49 0-1.42-1.1-1.63-2.37-1.63-1.25 0-2.37-.03-2.37 1.57h1.59c0-.55.4-.55.78-.55.72 0 .83.05.83.43 0 .48-.27.48-.83.48-2.01 0-2.37.45-2.37 1.44 0 1.55 1.03 1.58 2.37 1.58.89 0 2.14-.01 2.14-1.2v-.23zm6.99-1.53c0-.9-.15-1.4-.53-1.67-.37-.27-.95-.32-1.81-.32-1.87 0-2.31.56-2.31 2.47 0 1.64.33 2.48 2.31 2.48 1.4 0 2.34-.15 2.34-1.87h-1.58c.01.26-.02.41-.13.52-.11.1-.29.13-.63.13-.56 0-.72-.15-.72-1.26 0-1.13.12-1.25.72-1.25.72 0 .76.17.76.77zm2.35 2h.06c.23.77.7.96 1.45.96 1.07 0 1.56-.51 1.56-1.55v-3.34h-1.59v2.97c-.01.47-.14.7-.65.7-.71 0-.83-.42-.83-1.01v-2.66h-1.59v6.91h1.59zm5.76-3.93h-1.59v6.91h1.59zm4.14 0 .06.93h-.07c-.22-.75-.78-.99-1.45-.99-.96 0-1.64.41-1.64 1.59v3.31h1.58v-2.89c0-.44.05-.79.59-.79.42 0 .89.22.89.7v2.98h1.58v-4.84zm4.25 4.84v-.91h.06c.23.77.7.96 1.45.96 1.07 0 1.56-.51 1.56-1.55v-3.34h-1.59v2.97c-.01.47-.14.7-.65.7-.71 0-.83-.42-.83-1.01v-2.66h-1.59v4.84zm8.78-4.84h-1.59l.04.84h-.08c-.18-.73-.69-.9-1.38-.9-1.17 0-1.83.5-1.83 1.78v1.11c0 1.47.5 2.06 1.83 2.06.58 0 1.09-.12 1.35-.75h.07v2.77h1.59zm-2.45 1.16c.66 0 .86.15.86 1.25 0 .94-.02 1.26-.86 1.26-.79 0-.81-.3-.81-1.26 0-1.18.15-1.25.81-1.25"/><path fill="#004493" d="M162.14 250.66v-1.15h1.14v-.42h-1.14v-1.15h-.42v1.15h-1.15v.42h1.15v1.15z"/><path fill="#004493" d="m163.84 251.4.02-.02c.29.55.95.66 1.55.66 1.76 0 1.89-1.03 1.89-2.48 0-1.92-.47-2.47-1.89-2.47-.55 0-1.28.07-1.55.63h-.02v-3.36h-.73v7.63h.73zm0-1.84c0-1.14.07-1.88 1.37-1.88 1.13 0 1.34.31 1.34 1.88 0 1.45-.1 1.89-1.34 1.89-1.37 0-1.37-.61-1.37-1.89m7.89-2.41v.49l-.02.02c-.28-.55-.99-.57-1.59-.57-1.09 0-1.85.2-1.85 1.47 0 1.33.69 1.52 1.89 1.52.48 0 1.42-.05 1.52-.49h.05v.89c0 .89-.47.97-1.29.97-.57 0-1.27 0-1.26-.66v-.17h-.76v.1c0 1.25.86 1.33 1.94 1.32 1.21.01 2.11-.12 2.1-1.59v-3.3zm-.02 1.43c0 .92-.54.91-1.47.91-.86 0-1.21-.06-1.21-.84 0-.92.38-.97 1.21-.97.73 0 1.47.02 1.47.9m2.57 3.41-.03-.6.02-.02c.24.53.83.67 1.37.67.93 0 1.35-.46 1.35-1.36v-.35h-.7v.32c0 .6-.2.8-.81.8-.9 0-1.2-.43-1.18-1.29v-3.01h-.73v4.84zm6.57-.59h-1.87v-3.07c.01-.53.15-.65.68-.65.68 0 .68.36.68.82v.36h.69v-.36c0-.96-.39-1.41-1.39-1.41-1.13 0-1.39.32-1.39 1.46v2.85h-.65v.59h.65v1.17h.73v-1.17h1.87zm1.9 0h.02c.23.58.94.64 1.49.64 1.25 0 1.85-.33 1.83-1.68v-3.21h-.73v3.27c0 .88-.34 1.03-1.16 1.03-1.19 0-1.45-.37-1.45-1.48v-2.82h-.72v4.84h.72zm8.54-2.79v-.17c0-1.28-.99-1.35-2.07-1.35-1.89 0-2.18.63-2.18 2.47 0 2.01.45 2.48 2.18 2.48 1.57 0 2.07-.36 2.07-2.15v-.49h-3.49c0-1.53.11-1.72 1.42-1.72.99 0 1.32.06 1.32.75v.18zm-.76 1.38c-.04 1.38-.2 1.46-1.31 1.46-1.32 0-1.36-.34-1.42-1.46zm2.58 2-.04-.6.02-.02c.25.53.83.67 1.38.67.93 0 1.34-.46 1.34-1.36v-.35h-.69v.32c0 .6-.2.8-.81.8-.9 0-1.2-.43-1.18-1.29v-3.01h-.73v4.84z"/></g></svg>

<?xml version="1.0" encoding="UTF-8" standalone="no"?>
<!-- Created with Inkscape (http://www.inkscape.org/) -->
<svg
   xmlns:svg="http://www.w3.org/2000/svg"
   xmlns="http://www.w3.org/2000/svg"
   version="1.0"
   width="708.66144"
   height="121.28802"
   id="svg17810">
  <defs
     id="defs17812">
    <clipPath
       id="clp10">
<path
   d="M 124.82,241.91 L 195.81,241.91 L 195.81,254.06 L 124.82,254.06 L 124.82,241.91 z"
   id="path2669" />

</clipPath>
  </defs>
  <g
     transform="translate(-135.63306,-292.95335)"
     id="layer1">
    <g
       transform="matrix(7.9863699,0,0,7.9863699,-947.58281,-2894.0432)"
       id="g17890">
      <g
         transform="matrix(1.2499487,0,0,-1.2499487,-20.385526,716.61643)"
         id="q11"
         style="font-size:8.5px;letter-spacing:0;word-spacing:0;fill:#ffffff;fill-rule:nonzero;stroke:none;font-family:fnt1">
<clipPath
   id="clipPath17821">
<path
   d="M 124.82,241.91 L 195.81,241.91 L 195.81,254.06 L 124.82,254.06 L 124.82,241.91 z"
   id="path17823" />

</clipPath>

<g
   clip-path="url(#clp10)"
   id="g2671">
<path
   d="M 173.57,246.87 L 173.31,246.87 L 173.31,244.43 L 173.57,244.43 L 173.57,246.87 z"
   id="path2673"
   style="fill:#c5c5c7;fill-rule:nonzero;stroke:none" />

<path
   d="M 174.66,246.87 L 174.4,246.87 L 174.4,244.43 L 174.66,244.43 L 174.66,246.87 z"
   id="path2675"
   style="fill:#c5c5c7;fill-rule:nonzero;stroke:none" />

<path
   d="M 175.74,246.87 L 175.48,246.87 L 175.48,244.43 L 175.74,244.43 L 175.74,246.87 z"
   id="path2677"
   style="fill:#c5c5c7;fill-rule:nonzero;stroke:none" />

<path
   d="M 176.83,246.87 L 176.57,246.87 L 176.57,244.43 L 176.83,244.43 L 176.83,246.87 z"
   id="path2679"
   style="fill:#c5c5c7;fill-rule:nonzero;stroke:none" />

<path
   d="M 177.92,246.87 L 177.66,246.87 L 177.66,244.43 L 177.92,244.43 L 177.92,246.87 z"
   id="path2681"
   style="fill:#c5c5c7;fill-rule:nonzero;stroke:none" />

<path
   d="M 179,246.87 L 178.74,246.87 L 178.74,244.43 L 179,244.43 L 179,246.87 z"
   id="path2683"
   style="fill:#c5c5c7;fill-rule:nonzero;stroke:none" />

<path
   d="M 180.09,246.87 L 179.83,246.87 L 179.83,244.43 L 180.09,244.43 L 180.09,246.87 z"
   id="path2685"
   style="fill:#c5c5c7;fill-rule:nonzero;stroke:none" />

<path
   d="M 181.18,246.87 L 180.92,246.87 L 180.92,244.43 L 181.18,244.43 L 181.18,246.87 z"
   id="path2687"
   style="fill:#c5c5c7;fill-rule:nonzero;stroke:none" />

<path
   d="M 182.26,246.87 L 182,246.87 L 182,244.43 L 182.26,244.43 L 182.26,246.87 z"
   id="path2689"
   style="fill:#c5c5c7;fill-rule:nonzero;stroke:none" />

<path
   d="M 183.35,246.87 L 183.09,246.87 L 183.09,244.43 L 183.35,244.43 L 183.35,246.87 z"
   id="path2691"
   style="fill:#c5c5c7;fill-rule:nonzero;stroke:none" />

<path
   d="M 184.44,246.87 L 184.18,246.87 L 184.18,244.43 L 184.44,244.43 L 184.44,246.87 z"
   id="path2693"
   style="fill:#c5c5c7;fill-rule:nonzero;stroke:none" />

<path
   d="M 185.53,246.87 L 185.26,246.87 L 185.26,244.43 L 185.53,244.43 L 185.53,246.87 z"
   id="path2695"
   style="fill:#c5c5c7;fill-rule:nonzero;stroke:none" />

<path
   d="M 186.61,246.87 L 186.35,246.87 L 186.35,244.43 L 186.61,244.43 L 186.61,246.87 z"
   id="path2697"
   style="fill:#c5c5c7;fill-rule:nonzero;stroke:none" />

<path
   d="M 187.7,246.87 L 187.44,246.87 L 187.44,244.43 L 187.7,244.43 L 187.7,246.87 z"
   id="path2699"
   style="fill:#c5c5c7;fill-rule:nonzero;stroke:none" />

<path
   d="M 188.79,246.87 L 188.53,246.87 L 188.53,244.43 L 188.79,244.43 L 188.79,246.87 z"
   id="path2701"
   style="fill:#c5c5c7;fill-rule:nonzero;stroke:none" />

<path
   d="M 189.87,246.87 L 189.61,246.87 L 189.61,244.43 L 189.87,244.43 L 189.87,246.87 z"
   id="path2703"
   style="fill:#c5c5c7;fill-rule:nonzero;stroke:none" />

<path
   d="M 190.96,246.87 L 190.7,246.87 L 190.7,244.43 L 190.96,244.43 L 190.96,246.87 z"
   id="path2705"
   style="fill:#c5c5c7;fill-rule:nonzero;stroke:none" />

<path
   d="M 192.05,246.87 L 191.79,246.87 L 191.79,244.43 L 192.05,244.43 L 192.05,246.87 z"
   id="path2707"
   style="fill:#c5c5c7;fill-rule:nonzero;stroke:none" />

<path
   d="M 193.13,246.87 L 192.87,246.87 L 192.87,244.43 L 193.13,244.43 L 193.13,246.87 z"
   id="path2709"
   style="fill:#c5c5c7;fill-rule:nonzero;stroke:none" />

<path
   d="M 136.77,246.87 L 136.23,246.87 L 136.23,241.91 L 136.77,241.91 L 136.77,246.87 z"
   id="path2711"
   style="fill:#c5c5c7;fill-rule:nonzero;stroke:none" />

<path
   d="M 138,246.87 L 137.45,246.87 L 137.45,241.91 L 138,241.91 L 138,246.87 z"
   id="path2713"
   style="fill:#c5c5c7;fill-rule:nonzero;stroke:none" />

<path
   d="M 139.22,246.87 L 138.67,246.87 L 138.67,241.91 L 139.22,241.91 L 139.22,246.87 z"
   id="path2715"
   style="fill:#c5c5c7;fill-rule:nonzero;stroke:none" />

<path
   d="M 140.44,246.87 L 139.9,246.87 L 139.9,241.91 L 140.44,241.91 L 140.44,246.87 z"
   id="path2717"
   style="fill:#c5c5c7;fill-rule:nonzero;stroke:none" />

<path
   d="M 141.66,246.87 L 141.12,246.87 L 141.12,241.91 L 141.66,241.91 L 141.66,246.87 z"
   id="path2719"
   style="fill:#c5c5c7;fill-rule:nonzero;stroke:none" />

<path
   d="M 142.89,246.87 L 142.34,246.87 L 142.34,241.91 L 142.89,241.91 L 142.89,246.87 z"
   id="path2721"
   style="fill:#c5c5c7;fill-rule:nonzero;stroke:none" />

<path
   d="M 144.11,246.87 L 143.56,246.87 L 143.56,241.91 L 144.11,241.91 L 144.11,246.87 z"
   id="path2723"
   style="fill:#c5c5c7;fill-rule:nonzero;stroke:none" />

<path
   d="M 145.33,246.87 L 144.79,246.87 L 144.79,241.91 L 145.33,241.91 L 145.33,246.87 z"
   id="path2725"
   style="fill:#c5c5c7;fill-rule:nonzero;stroke:none" />

<path
   d="M 146.55,246.87 L 146.01,246.87 L 146.01,241.91 L 146.55,241.91 L 146.55,246.87 z"
   id="path2727"
   style="fill:#c5c5c7;fill-rule:nonzero;stroke:none" />

<path
   d="M 147.77,246.87 L 147.23,246.87 L 147.23,241.91 L 147.77,241.91 L 147.77,246.87 z"
   id="path2729"
   style="fill:#c5c5c7;fill-rule:nonzero;stroke:none" />

<path
   d="M 149,246.87 L 148.46,246.87 L 148.46,241.91 L 149,241.91 L 149,246.87 z"
   id="path2731"
   style="fill:#c5c5c7;fill-rule:nonzero;stroke:none" />

<path
   d="M 150.22,246.87 L 149.68,246.87 L 149.68,241.91 L 150.22,241.91 L 150.22,246.87 z"
   id="path2733"
   style="fill:#c5c5c7;fill-rule:nonzero;stroke:none" />

<path
   d="M 151.44,246.87 L 150.9,246.87 L 150.9,241.91 L 151.44,241.91 L 151.44,246.87 z"
   id="path2735"
   style="fill:#c5c5c7;fill-rule:nonzero;stroke:none" />

<path
   d="M 152.66,246.87 L 152.12,246.87 L 152.12,241.91 L 152.66,241.91 L 152.66,246.87 z"
   id="path2737"
   style="fill:#c5c5c7;fill-rule:nonzero;stroke:none" />

<path
   d="M 153.89,246.87 L 153.35,246.87 L 153.35,241.91 L 153.89,241.91 L 153.89,246.87 z"
   id="path2739"
   style="fill:#c5c5c7;fill-rule:nonzero;stroke:none" />

<path
   d="M 155.11,246.87 L 154.57,246.87 L 154.57,241.91 L 155.11,241.91 L 155.11,246.87 z"
   id="path2741"
   style="fill:#c5c5c7;fill-rule:nonzero;stroke:none" />

<path
   d="M 156.33,246.87 L 155.79,246.87 L 155.79,241.91 L 156.33,241.91 L 156.33,246.87 z"
   id="path2743"
   style="fill:#c5c5c7;fill-rule:nonzero;stroke:none" />

<path
   d="M 157.56,246.87 L 157.01,246.87 L 157.01,241.91 L 157.56,241.91 L 157.56,246.87 z"
   id="path2745"
   style="fill:#c5c5c7;fill-rule:nonzero;stroke:none" />

<path
   d="M 158.78,246.87 L 158.23,246.87 L 158.23,241.91 L 158.78,241.91 L 158.78,246.87 z"
   id="path2747"
   style="fill:#c5c5c7;fill-rule:nonzero;stroke:none" />

<path
   d="M 160,246.87 L 159.46,246.87 L 159.46,241.91 L 160,241.91 L 160,246.87 z"
   id="path2749"
   style="fill:#c5c5c7;fill-rule:nonzero;stroke:none" />

<path
   d="M 161.22,246.87 L 160.68,246.87 L 160.68,244.43 L 161.22,244.43 L 161.22,246.87 z"
   id="path2751"
   style="fill:#c5c5c7;fill-rule:nonzero;stroke:none" />

<path
   d="M 162.45,246.87 L 161.9,246.87 L 161.9,244.43 L 162.45,244.43 L 162.45,246.87 z"
   id="path2753"
   style="fill:#c5c5c7;fill-rule:nonzero;stroke:none" />

<path
   d="M 165.05,246.87 L 164.51,246.87 L 164.51,244.43 L 165.05,244.43 L 165.05,246.87 z"
   id="path2755"
   style="fill:#c5c5c7;fill-rule:nonzero;stroke:none" />

<path
   d="M 166.27,246.87 L 165.73,246.87 L 165.73,244.43 L 166.27,244.43 L 166.27,246.87 z"
   id="path2757"
   style="fill:#c5c5c7;fill-rule:nonzero;stroke:none" />

<path
   d="M 167.5,246.87 L 166.96,246.87 L 166.96,244.43 L 167.5,244.43 L 167.5,246.87 z"
   id="path2759"
   style="fill:#c5c5c7;fill-rule:nonzero;stroke:none" />

<path
   d="M 168.73,246.87 L 168.19,246.87 L 168.19,244.43 L 168.73,244.43 L 168.73,246.87 z"
   id="path2761"
   style="fill:#c5c5c7;fill-rule:nonzero;stroke:none" />

<path
   d="M 169.95,246.87 L 169.41,246.87 L 169.41,244.43 L 169.95,244.43 L 169.95,246.87 z"
   id="path2763"
   style="fill:#c5c5c7;fill-rule:nonzero;stroke:none" />

<path
   d="M 171.18,246.87 L 170.64,246.87 L 170.64,244.43 L 171.18,244.43 L 171.18,246.87 z"
   id="path2765"
   style="fill:#c5c5c7;fill-rule:nonzero;stroke:none" />

<path
   d="M 172.41,246.87 L 171.87,246.87 L 171.87,244.43 L 172.41,244.43 L 172.41,246.87 z"
   id="path2767"
   style="fill:#c5c5c7;fill-rule:nonzero;stroke:none" />

<path
   d="M 124.82,246.89 L 193.94,246.89 L 193.94,247.15 L 124.82,247.15 L 124.82,246.89 z"
   id="path2769"
   style="fill:#004493;fill-rule:nonzero;stroke:none" />

<path
   d="M 128.48,250.61 C 128.42,251.02 128.08,251.02 127.83,251.02 C 127,251.02 127,250.92 127,250.63 C 127,250.39 127.02,250.22 127.83,250.21 C 129.47,250.17 130.2,250.08 130.2,248.72 C 130.2,247.3 129.1,247.09 127.83,247.09 C 126.58,247.09 125.46,247.06 125.46,248.66 L 127.05,248.66 C 127.05,248.11 127.45,248.11 127.83,248.11 C 128.55,248.11 128.66,248.16 128.66,248.54 C 128.66,249.02 128.39,249.02 127.83,249.02 C 125.82,249.02 125.46,249.47 125.46,250.46 C 125.46,252.01 126.49,252.04 127.83,252.04 C 128.72,252.04 129.97,252.03 129.97,250.84 L 129.97,250.61 L 128.48,250.61 z"
   id="path2771"
   style="fill:#004493;fill-rule:nonzero;stroke:none" />

<path
   d="M 135.47,249.08 C 135.47,248.18 135.32,247.68 134.94,247.41 C 134.57,247.14 133.99,247.09 133.13,247.09 C 131.26,247.09 130.82,247.65 130.82,249.56 C 130.82,251.2 131.15,252.04 133.13,252.04 C 134.53,252.04 135.47,251.89 135.47,250.17 L 133.89,250.17 C 133.9,250.43 133.87,250.58 133.76,250.69 C 133.65,250.79 133.47,250.82 133.13,250.82 C 132.57,250.82 132.41,250.67 132.41,249.56 C 132.41,248.43 132.53,248.31 133.13,248.31 C 133.85,248.31 133.89,248.48 133.89,249.08 L 135.47,249.08 z"
   id="path2773"
   style="fill:#004493;fill-rule:nonzero;stroke:none" />

<path
   d="M 137.82,251.08 L 137.88,251.08 C 138.11,251.85 138.58,252.04 139.33,252.04 C 140.4,252.04 140.89,251.53 140.89,250.49 L 140.89,247.15 L 139.3,247.15 L 139.3,250.12 C 139.29,250.59 139.16,250.82 138.65,250.82 C 137.94,250.82 137.82,250.4 137.82,249.81 L 137.82,247.15 L 136.23,247.15 L 136.23,254.06 L 137.82,254.06 L 137.82,251.08 z"
   id="path2775"
   style="fill:#004493;fill-rule:nonzero;stroke:none" />

<path
   d="M 143.58,247.15 L 141.99,247.15 L 141.99,254.06 L 143.58,254.06 L 143.58,247.15 z"
   id="path2777"
   style="fill:#004493;fill-rule:nonzero;stroke:none" />

<path
   d="M 147.72,247.15 L 147.78,248.08 L 147.71,248.08 C 147.49,247.33 146.93,247.09 146.26,247.09 C 145.3,247.09 144.62,247.5 144.62,248.68 L 144.62,251.99 L 146.2,251.99 L 146.2,249.1 C 146.2,248.66 146.25,248.31 146.79,248.31 C 147.21,248.31 147.68,248.53 147.68,249.01 L 147.68,251.99 L 149.26,251.99 L 149.26,247.15 L 147.72,247.15 z"
   id="path2779"
   style="fill:#004493;fill-rule:nonzero;stroke:none" />

<path
   d="M 151.97,251.99 L 151.97,251.08 L 152.03,251.08 C 152.26,251.85 152.73,252.04 153.48,252.04 C 154.55,252.04 155.04,251.53 155.04,250.49 L 155.04,247.15 L 153.45,247.15 L 153.45,250.12 C 153.44,250.59 153.31,250.82 152.8,250.82 C 152.09,250.82 151.97,250.4 151.97,249.81 L 151.97,247.15 L 150.38,247.15 L 150.38,251.99 L 151.97,251.99 z"
   id="path2781"
   style="fill:#004493;fill-rule:nonzero;stroke:none" />

<path
   d="M 160.75,247.15 L 159.16,247.15 L 159.2,247.99 L 159.12,247.99 C 158.94,247.26 158.43,247.09 157.74,247.09 C 156.57,247.09 155.91,247.59 155.91,248.87 L 155.91,249.98 C 155.91,251.45 156.41,252.04 157.74,252.04 C 158.32,252.04 158.83,251.92 159.09,251.29 L 159.16,251.29 L 159.16,254.06 L 160.75,254.06 L 160.75,247.15 z M 158.3,248.31 C 158.96,248.31 159.16,248.46 159.16,249.56 C 159.16,250.5 159.14,250.82 158.3,250.82 C 157.51,250.82 157.49,250.52 157.49,249.56 C 157.49,248.38 157.64,248.31 158.3,248.31"
   id="path2783"
   style="fill:#004493;fill-rule:nonzero;stroke:none" />

<path
   d="M 162.14,250.66 L 162.14,249.51 L 163.28,249.51 L 163.28,249.09 L 162.14,249.09 L 162.14,247.94 L 161.72,247.94 L 161.72,249.09 L 160.57,249.09 L 160.57,249.51 L 161.72,249.51 L 161.72,250.66 L 162.14,250.66 z"
   id="path2785"
   style="fill:#004493;fill-rule:nonzero;stroke:none" />

<path
   d="M 163.84,251.4 L 163.86,251.38 C 164.15,251.93 164.81,252.04 165.41,252.04 C 167.17,252.04 167.3,251.01 167.3,249.56 C 167.3,247.64 166.83,247.09 165.41,247.09 C 164.86,247.09 164.13,247.16 163.86,247.72 L 163.84,247.72 L 163.84,244.36 L 163.11,244.36 L 163.11,251.99 L 163.84,251.99 L 163.84,251.4 z M 163.84,249.56 C 163.84,248.42 163.91,247.68 165.21,247.68 C 166.34,247.68 166.55,247.99 166.55,249.56 C 166.55,251.01 166.45,251.45 165.21,251.45 C 163.84,251.45 163.84,250.84 163.84,249.56"
   id="path2787"
   style="fill:#004493;fill-rule:nonzero;stroke:none" />

<path
   d="M 171.73,247.15 L 171.73,247.64 L 171.71,247.66 C 171.43,247.11 170.72,247.09 170.12,247.09 C 169.03,247.09 168.27,247.29 168.27,248.56 C 168.27,249.89 168.96,250.08 170.16,250.08 C 170.64,250.08 171.58,250.03 171.68,249.59 L 171.73,249.59 L 171.73,250.48 C 171.73,251.37 171.26,251.45 170.44,251.45 C 169.87,251.45 169.17,251.45 169.18,250.79 L 169.18,250.62 L 168.42,250.62 L 168.42,250.72 C 168.42,251.97 169.28,252.05 170.36,252.04 C 171.57,252.05 172.47,251.92 172.46,250.45 L 172.46,247.15 L 171.73,247.15 z M 171.71,248.58 C 171.71,249.5 171.17,249.49 170.24,249.49 C 169.38,249.49 169.03,249.43 169.03,248.65 C 169.03,247.73 169.41,247.68 170.24,247.68 C 170.97,247.68 171.71,247.7 171.71,248.58"
   id="path2789"
   style="fill:#004493;fill-rule:nonzero;stroke:none" />

<path
   d="M 174.28,251.99 L 174.25,251.39 L 174.27,251.37 C 174.51,251.9 175.1,252.04 175.64,252.04 C 176.57,252.04 176.99,251.58 176.99,250.68 L 176.99,250.33 L 176.29,250.33 L 176.29,250.65 C 176.29,251.25 176.09,251.45 175.48,251.45 C 174.58,251.45 174.28,251.02 174.3,250.16 L 174.3,247.15 L 173.57,247.15 L 173.57,251.99 L 174.28,251.99 z"
   id="path2791"
   style="fill:#004493;fill-rule:nonzero;stroke:none" />

<path
   d="M 180.85,251.4 L 178.98,251.4 L 178.98,248.33 C 178.99,247.8 179.13,247.68 179.66,247.68 C 180.34,247.68 180.34,248.04 180.34,248.5 L 180.34,248.86 L 181.03,248.86 L 181.03,248.5 C 181.03,247.54 180.64,247.09 179.64,247.09 C 178.51,247.09 178.25,247.41 178.25,248.55 L 178.25,251.4 L 177.6,251.4 L 177.6,251.99 L 178.25,251.99 L 178.25,253.16 L 178.98,253.16 L 178.98,251.99 L 180.85,251.99 L 180.85,251.4 z"
   id="path2793"
   style="fill:#004493;fill-rule:nonzero;stroke:none" />

<path
   d="M 182.75,251.4 L 182.77,251.4 C 183,251.98 183.71,252.04 184.26,252.04 C 185.51,252.04 186.11,251.71 186.09,250.36 L 186.09,247.15 L 185.36,247.15 L 185.36,250.42 C 185.36,251.3 185.02,251.45 184.2,251.45 C 183.01,251.45 182.75,251.08 182.75,249.97 L 182.75,247.15 L 182.03,247.15 L 182.03,251.99 L 182.75,251.99 L 182.75,251.4 z"
   id="path2795"
   style="fill:#004493;fill-rule:nonzero;stroke:none" />

<path
   d="M 191.29,248.61 L 191.29,248.44 C 191.29,247.16 190.3,247.09 189.22,247.09 C 187.33,247.09 187.04,247.72 187.04,249.56 C 187.04,251.57 187.49,252.04 189.22,252.04 C 190.79,252.04 191.29,251.68 191.29,249.89 L 191.29,249.4 L 187.8,249.4 C 187.8,247.87 187.91,247.68 189.22,247.68 C 190.21,247.68 190.54,247.74 190.54,248.43 L 190.54,248.61 L 191.29,248.61 z M 190.53,249.99 C 190.49,251.37 190.33,251.45 189.22,251.45 C 187.9,251.45 187.86,251.11 187.8,249.99 L 190.53,249.99 z"
   id="path2797"
   style="fill:#004493;fill-rule:nonzero;stroke:none" />

<path
   d="M 193.11,251.99 L 193.07,251.39 L 193.09,251.37 C 193.34,251.9 193.92,252.04 194.47,252.04 C 195.4,252.04 195.81,251.58 195.81,250.68 L 195.81,250.33 L 195.12,250.33 L 195.12,250.65 C 195.12,251.25 194.92,251.45 194.31,251.45 C 193.41,251.45 193.11,251.02 193.13,250.16 L 193.13,247.15 L 192.4,247.15 L 192.4,251.99 L 193.11,251.99 z"
   id="path2799"
   style="fill:#004493;fill-rule:nonzero;stroke:none" />

</g>

</g>
    </g>
  </g>
</svg>
